X:1
T:Ballade No 3
T:Ballade No 3 - Intermezzo
T:from Ballades Op. 10
T:Johannes Brahms (1833-1897) 
C:by Johannes Brahms (1833-1897)
%%score { ( 1 4 ) | ( 2 3 ) }
L:1/8
Q:1/4=150
M:6/8
K:D
V:1 treble nm="Grand Piano" snm="Pno."
V:4 treble 
V:2 bass 
V:3 bass 
V:1
!f!"^Allegro" z | z6 | z6 |:!f! (!>![Cc]>dF/B/ !wedge!f) z z | (!>![Cc]>dF/B/ !wedge!f) z z | %5
 (!>![Ff]>g=c/e/ !wedge!=c') z z | (!>![^B^b]>c'f/^a/ !wedge!f') z z | %7
 !>![cc']>d'^a/b/ ^e/f/c/d/^A/B/ | ^E>FC/D/ x3 | z2 !>![Geg]- [Geg].[Fdf].[Ece] | %10
 .[DBd] z !>![Geg]- [Geg].[Fdf].[Ece] | .[DBd] z !>![=ca=c']- [cac'].[Bgb].[Afa] | %12
 .[Geg] z !>![dbd']- [dbd'].[c^ac'].[B^gb] | .[^Af^a] z .[cac'] z .[faf'] z | z6 | %15
 (!>![^G,^G]>=AC/F/ .c) z z | (!>![^G,^G]>AC/F/ .c) z z | (!>![Cc]>dF/A/ .f) z z | %18
 (!>![Ff]>gB/e/ .b) z z | (!>![Bb]>=c'e/g/ .e') z z | (!>![^c^c']>d'=f/b/ .g') z z | %21
 (!>![Bb]>=c'e/g/ .e') z z | (!>![^c^c']>d'=f/b/ .g') z z | (!>![^d^d']>e'b/=c'/ f/g/^d/e/B/=c/ | %24
 A>^AF/G/ ^D/E/^B,/C/=A,/^A,/ | .F,) z!p! !>![EG]- [EG].[DF].[CE] | %26
 .[B,D] z !>![EG]- [EG].[DF].[CE] | .[B,D] z !>![^DA=c]- [DAc].[GB].[FA] | %28
 .[EG] z !>![^EBd]- [EBd].[^Ac].[^GB] |"_dim." z2 !>![^EBd]- [EBd] z z | %30
 z2 !>![^EBd]- [EBd] z"_dolce" z |!p! (!>![^E^Ac^e]>fA/c/ .^a) z z | %32
 (!>![^^Fc^e^^f]>^gB/^e/ .c') z z | (!>![^E^Ac^e]>fA/c/ .^a) z z | %34
 (!>![^^Fc^e^^f]>^gB/^e/ .c') z z | (!>![^^Gcf^^g]>^a^e/f/ ^B/c/^^G/^A/^E/F/ | %36
 ^B,>C[I:staff +1]^^G,/^A,/ ^E,/F,/^B,,/C,/^^G,,/)[I:staff -1] z/ | %37
!pp![I:staff +1] ((([^E,C-^E]6 |1 [F,^A,CF]6) |[I:staff -1] z6 | z6 :|2 %41
!pp![I:staff +1] [F,^A,CF]6)) |!>(! [^E,^A,-C-]6 || [F,A,C]3-!>)! [F,A,C]2[I:staff -1] z | %44
!ppp![I:staff +1] [C,^E,]6- | [C,E,]6 || %46
[K:F#]!pp!!8va(![I:staff -1] ([ac'e']3 [ac'f']2 [e'g'c'']) | ([e'g'c'']3 [d'f'a']3) | %48
 ([bd'g']2 [ad'f'] [bd'g']3- | [bd'g']2 [ad'f'] [a^^c'e']2!8va)!!<(! [eac']- | %50
 [eac']3!<)!!p! [fad']3-) | [fad']6- | [fad']6 | ([ac'e']3 [ac'f']2!8va(! [e'g'c'']) | %54
 ([e'g'c'']3 [d'f'a']3) | ([bd'g']2 [ad'f']!<(! [bd'g']3- | [bd'g']2 [bd'f'] [b=e'g']3- | %57
 [be'g']2 [bd'f']!<)!!p! [bd'g']3- | [bd'g']2 [ad'f']!>(! [a^^c'e']2 [eac']- | %59
 [eac']3 [fad']3-)!>)! |!pp! [fad']6- | [fad']6 | [fac']3!<(! [fad']2 [ac'e']!<)! | %63
!p!!>(! [ac'e']3!>)!!pp! [fad']3 | [egb]3!<(! [egc']2 [gbd']!<)! |!p!!>(! [gbd']3!>)!!pp! [egc']3 | %66
 [dgb]2 [dfa] [dgb]3- | [dgb]2 [fa] [dfb]3- | [dfb]2 [dfa] [Bdg]3- | [Bdg]2 [df] [^^ce]3- | %70
 [ce]6- | [ce]6 | !>![^^c'e']6- | [c'e']6 |!pp! [ac'e']3!<(! [ac'f']2 [e'g'c'']!<)! | %75
!p!!>(! [e'g'c'']3!>)!!pp! [d'f'a']3 |!<(! [ac'e']3!<)!!p! [ac'f']3 | %77
!>(! [e'g'c'']3!>)!!pp! [d'f'a']3 | [ac'e']3 [ac'f']3 | [ac'e']3 [ac'f']3 | [ac'e']6 | [ac'=e']6 | %82
 [c'=e']6 | [c'=e']6!8va)! | [=E=G]3- [EG]2 z | [=E=G]3- [EG]2 z | [c'=e']6 | [c'=e']6 | [=E=G]6 | %89
 [=E=G]6 | [c'=e']6 | [=E=G]6 | [c'=e']6 | [=E=G]6 | [c'=e']6- | [c'e']3- [c'e']2 z || %96
[K:D]"^sempre  e molto leggiero" (c>dF/B/ .f) z z | (c>dF/B/ .f) z z | (f>g=c/e/ .=c') z z | %99
 (^b>c'f/^a/ .f') z z | c'>d'^a/b/ ^e/f/c/d/^A/B/ | ^E>FC/D/[I:staff +1] ^A,/B,/^E,/F,/C,/D,/ | %102
[I:staff -1] z2 !tenuto!.[EG] z .[DF].[CE] | .[B,D] z !tenuto!.[EG] z .[DF].[CE] | %104
 .[B,D] z !tenuto!.[A=c] z .[GB].[FA] | .[EG] z !tenuto!.[Bd] z .[^Ac].[^GB] | %106
 z .[F^A]z.[Ac]z.[Af] | z6 | (^G>AC/F/ .c) z z | (^G>AC/F/ .c) z z | (c>dF/B/ .f) z z | %111
 (f>gB/e/ .b) z"_dolce" z | (!>![Begb]>=c'e/g/ .e') z z | (!>![^Beg^b]>^c'f/^a/ .f') z z | %114
 (!>![=Beg=b]>=c'e/g/ .e') z z | (!>![^Beg^b]>^c'f/^a/ .f') z z || %116
[K:B] (!>![^d^^c']>^d'^a/b/ ^e/f/^^c/d/^A/B/ | %117
 ^E>F^^C/D/[I:staff +1] ^A,/B,/^E,/F,/^^C,/)[I:staff -1] z/ | (!>![A,FA]6 |"_dim." [B,DFB]6) | %120
 ([A,D-F-]6 | [B,DF]3-) [B,DF]2 z |!ppp! x6 |"^poco rit."[Q:1/4=90] x6 |[Q:1/4=80] ([df]6 | %125
[Q:1/4=70]!<(! [fa]3- [fa]2!<)!!pp! [dd'f']) |[Q:1/4=60] [dbd'f']6- | [dbd'f']3- [dbd'f']2 z |] %128
V:2
 !wedge![B,,,F,,] | z3 z2 !wedge![B,,,F,,] | z3 z2!ped! !wedge![B,,,F,,] |: %3
 z3/2 (D/F,/B,/ !wedge!F)!ped-up! z!ped! !wedge![B,,,F,,] | %4
 z3/2 (D/F,/B,/ !wedge!F)!ped-up! z!ped! !wedge![E,,G,,] | %5
 z3/2[K:treble] (G/=C/E/ !wedge!=c)!ped-up! z[K:bass]!ped! !wedge![F,,^A,,] | %6
 z3/2[K:treble] (c/F/^A/ !wedge!f)!ped-up! z[K:bass]!ped! !wedge![B,,,F,,B,,] | %7
 z3/2[K:treble] (d/^A/B/ ^E/F/C/D/^A,/B,/ |[K:bass] ^E,>)!ped-up!F,C,/D,/ ^A,/B,/E,/F,/C,/D,/ | %9
 !wedge!^A,, z !>![^A,,,A,,]- [A,,,A,,].[B,,,B,,].[C,,C,] | %10
 .[D,,D,] !>![^A,,,^A,,]2- [A,,,A,,].[B,,,B,,].[C,,C,] | %11
 .[D,,D,] !>![^D,,^D,]2- [D,,D,].[E,,E,].[F,,F,] | %12
 .[G,,G,] !>![^E,,^E,]2- [E,,E,].[F,,F,].[^G,,^G,] |"^dim." .[^A,,^A,] z .[F,,F,] z .[C,,C,] z | %14
 .[^A,,,^A,,] z .[F,,,F,,] z z!p!!ped! .[F,,,F,,] | %15
 z3/2 (=A,/C,/F,/ .C)!ped-up! z!ped! .[F,,,F,,] | z3/2 (A,/C,/F,/ .C)!ped-up! z!ped! .[F,,,F,,] | %17
 z3/2 (D/F,/A,/ .F)!ped-up! z!ped! .[E,,,E,,] | %18
 z3/2 (G/B,/E/ .B)!ped-up! z"_sempre Ped."!ped! .[=C,,G,,] | %19
 z3/2[K:treble] (=c/E/G/ .e)!ped-up! z[K:bass]!ped! .[=C,,G,,] | %20
 z3/2[K:treble] (d/=F/B/ .g)!ped-up! z[K:bass]!ped! .[=C,,G,,] | %21
 z3/2[K:treble] (=c/E/G/ .e)!ped-up! z[K:bass]!ped! .[=C,,G,,] | %22
 z3/2[K:treble] (d/=F/B/ .g)!ped-up! z[K:bass]!ped! .[=C,,G,,] | %23
 z3/2[K:treble] (e/B/=c/ F/G/^D/E/B,/=C/ | %24
[K:bass] A,>!ped-up!^A,F,/G,/ ^D,/E,/^B,,/C,/=A,,/^A,,/) | .F,,.F,, z z .F,,.F,, | %26
 .F,,.F,, z z .F,,.F,, | .F,,.F,, z z .F,,.F,, | .F,,.F,, z z .F,,.F,, | .F,,.F,, z z3 | %30
 .F,,.F,, z z2!ped! .F,, | z3/2 (F/^A,/C/ .^A)!ped-up! z!ped! .F,, | %32
 z3/2[K:treble] (^G/B,/^E/ .c)!ped-up! z[K:bass]!ped! .F,, | %33
 z3/2 (F/^A,/C/ .^A)!ped-up! z!ped! .F,, | %34
 z3/2[K:treble] (^G/B,/^E/ .c)!ped-up! z[K:bass]!ped! .F,, | %35
 z3/2 (^A/^E/F/ ^B,/C/^^G,/^A,/^E,/F,/ | %36
 ^B,,>!ped-up!C,^^G,,/^A,,/ ^E,,/F,,/^B,,,/C,,/^^G,,,/)[^A,,,^A,,]/- | (([A,,,A,,]6 |1 %38
 [F,,,F,,]3-) [F,,,F,,]2!p!!<(! .[^A,,,C,,] | z3 z2 .[^A,,,C,,] | z3 z2!<)!!f! .[B,,,F,,] :|2 %41
 [F,,,F,,]6) | [^A,,,^A,,]6 || [F,,,F,,]3- [F,,,F,,]2 z |!ped! [^A,,,C,,^A,,]6- | [A,,,C,,A,,]6 || %46
[K:F#][K:treble] A3!ped-up! F2 C | C3 D3 | G2 D[K:bass] G,3- | G,2 D, A,,3- | [D,,-A,,]6!ped! | %51
 D,,6- | D,,3- D,,2!ped-up! z | x3 x2[K:treble] C | C3 D3 | G2 D[K:bass] G,3- | G,2 B, =E,3- | %57
 E,2 B, G,3- | G,2 D A2 A, |[K:treble] x3!ped! x3 | z2 (d A3-) | A2 (d A3-)!ped-up! | A6- | A6 | %64
 G6- | G6 | (G2 D G,3- | G,2[K:bass] F, B,,3- | B,,2 D, G,,3- | G,,2 G,,,!ped! A,,,3) | z2 a A3- | %71
 A2 a A3- | A2 a A3- | A2 a A3- | A2!ped-up! F- F2 C- | C2 D- D2 A- | A2 F- F2 C- | C2 D- D2 A- | %78
"^dim." A2 F- F2 A- | A2 D- D2 !>!A- | A3- A2 !>!A- | A3- A2 !>!A- | A3- A2!ped! !>!A- | %83
 A3- A2[K:bass]!ppp! F,,, | z3 z2 F,,, | z3 z2 !>!A- | A3- A2 !>!A- | A3- A2 F,,, | z3 z2 F,,, | %89
 z3 z2 !>!A- | A3- A2 F,,, | z3 z2 !>!A- | A3- A2 F,,, | z3 z2 A- | A6- | %95
 A3- A2!ped-up!!pp!!ped! F,,, ||[K:D][I:staff -1] ([EG]3[I:staff +1] D)!ped-up! z!ped! z | %97
[I:staff -1] ([EG]3[I:staff +1] D)!ped-up! z!ped! z | %98
[I:staff -1] ([A=c]3[I:staff +1] G)!ped-up! z!ped! z | %99
[I:staff -1] ([eg]3[I:staff +1] c)!ped-up! z!ped! z |!pp! z2 B FDB, | F,2!ped-up! D, B,,F,,D,, | %102
 ^A,, z z z .B,,,.C,, | .D,,.^A,,, z z .B,,,.C,, | .D,,.^D,, z z .E,,.F,, | %105
 .G,,.^E,, z z .F,,.^G,, |!>(!"^dim." .^A,,z.F,,z.C,, z | .^A,,, z .F,,,!>)!!pp! z z!ped! .F,,, | %108
[I:staff -1] ([B,D]3[I:staff +1] A,)!ped-up! z!ped! z | %109
[I:staff -1] ([B,D]3[I:staff +1] A,)!ped-up! z!ped! z | %110
[I:staff -1] ([EG]3[I:staff +1] D)!ped-up! z!ped! z | %111
[I:staff -1] ([A=c]3[I:staff +1] G)!ped-up! z!ped! z | %112
 z3/2[K:treble] (=c/E/G/ .e)!ped-up! z[K:bass]!ped! .[F,,,F,,] | %113
 z3/2[K:treble] (^c/F/^A/ .f)!ped-up! z[K:bass]!ped! .[=C,,G,,] | %114
 z3/2[K:treble] (=c/E/G/ .e)!ped-up! z[K:bass]!ped! .[F,,,F,,] | %115
 z3/2[K:treble] (^c/F/^A/ .f)!ped-up! z[K:bass]!ped! .[B,,,F,,] ||[K:B] z2[K:treble] (B FDB, | %117
 F,2!ped-up! D, B,,F,,D,,/)[D,,D,]/- | ([D,,D,]6 | [B,,,B,,]6) | ([D,,A,,D,]6 | %121
 [B,,,B,,]3-) [B,,,B,,]2 z |!ped! !>![D,F,A,]6- | [D,F,A,]6- | [D,F,A,]6- | [D,F,A,]6!ped-up! | %126
!ped!{B,,,B,,} [F,B,DF]6- | [F,B,DF]3- [F,B,DF]2!ped-up! z |] %128
V:3
 x | x6 | x6 |: x6 | x6 | x3/2[K:treble] x7/2[K:bass] x | x3/2[K:treble] x7/2[K:bass] x | %7
 x3/2[K:treble] x9/2 |[K:bass] x3 ^A,,/B,,/^E,,/F,,/C,,/D,,/ | !wedge!^A,,, x5 | x6 | x6 | x6 | %13
 x6 | x6 | x6 | x6 | x6 | x6 | x3/2[K:treble] x7/2[K:bass] x | x3/2[K:treble] x7/2[K:bass] x | %21
 x3/2[K:treble] x7/2[K:bass] x | x3/2[K:treble] x7/2[K:bass] x | x3/2[K:treble] x9/2 |[K:bass] x6 | %25
 x6 | x6 | x6 | x6 | x6 | x6 | x6 | x3/2[K:treble] x7/2[K:bass] x | x6 | %34
 x3/2[K:treble] x7/2[K:bass] x | x6 | x6 | x6 |1 x6 | x6 | x6 :|2 x6 | x6 || x6 | x6 | x6 || %46
[K:F#][K:treble] x6 | x6 | x3[K:bass] x3 | x6 | x3 x3 | x6 | x6 | x5[K:treble] x | x6 | %55
 x3[K:bass] x3 | x6 | x6 | x6 |[K:treble] D6- | D6- | D3- D2 z | (F3 D2 A,) | (A,3 D3) | %64
 (E3 C2 G,) | (G,3 C3) | x6 | x2[K:bass] x4 | x6 | x6 | x6 | x6 | x6 | x6 | x6 | x6 | x6 | x6 | %78
 x6 | x6 | x6 | x6 | x6 | x5[K:bass] x | x6 | x6 | x6 | x6 | x6 | x6 | x6 | x6 | x6 | x6 | x6 | %95
 x6 ||[K:D] z3 z2 F,,, | z3 z2 F,,, | z3 z2 F,,, | z3 z2 [B,,,F,,] | x6 | x6 | ^A,,, x5 | x6 | x6 | %105
 x6 | x6 | x6 | z3 z2 .F,,, | z3 z2 .F,, | z3 z2 .E,, | z3 z2 .[=C,,G,,] | %112
 x3/2[K:treble] x7/2[K:bass] x | x3/2[K:treble] x7/2[K:bass] x | x3/2[K:treble] x7/2[K:bass] x | %115
 x3/2[K:treble] x7/2[K:bass] x ||[K:B] x2[K:treble] x4 | x6 | x6 | x6 | x6 | x6 | [D,,,F,,]6- | %123
 [D,,,F,,]6- | [D,,,F,,]6- | [D,,,F,,]6 | x6 | x6 |] %128
V:4
 x | x6 | x6 |: x6 | x6 | x6 | x6 | x6 | x6 | x6 | x6 | x6 | x6 | x6 | x6 | x6 | x6 | x6 | x6 | %19
 x6 | x6 | x6 | x6 | x6 | x6 | x6 | x6 | x6 | x6 | x6 | x6 | x6 | x6 | x6 | x6 | x6 | x6 | x6 |1 %38
 x6 | x6 | x6 :|2 x6 | x6 || x6 | x6 | x6 ||[K:F#]!8va(! x6 | x6 | x6 | x5!8va)! x | x6 | %51
 z z d A3- | A2 d A3- | A3 F3!8va(! | x6 | x6 | x6 | x6 | x6 | x6 | x6 | x6 | x6 | x6 | x6 | x6 | %66
 x6 | x6 | x6 | x6 | x6 | x6 | x6 | x6 | x6 | x6 | x6 | x6 | x6 | x6 | x6 | x6 | x6 | x6!8va)! | %84
 x6 | x6 | x6 | x6 | x6 | x6 | x6 | x6 | x6 | x6 | x6 | x6 ||[K:D] x6 | x6 | x6 | x6 | d2 x4 | x6 | %102
 x6 | x6 | x6 | x6 | x6 | x6 | x6 | x6 | x6 | x6 | x6 | x6 | x6 | x6 ||[K:B] x6 | x6 | x6 | x6 | %120
 x6 | x6 | x6 | x6 | [DF]6 | [FA]3- [FA]2 x | x6 | x6 |] %128

